src/assets/outline/Driving.svg

<svg width="24" height="24" viewBox="0 0 24 24"  xmlns="http://www.w3.org/2000/svg">
<path d="M17.8001 8.67999H6.20005C5.97005 8.67999 5.76005 8.58002 5.62005 8.40002C5.48005 8.22002 5.42005 7.99002 5.47005 7.77002L6.29004 3.84998C6.56004 2.55998 7.15005 1.25 9.45005 1.25H14.5501C16.8601 1.25 17.4501 2.56998 17.7101 3.84998L18.5301 7.77002C18.5801 7.99002 18.5201 8.22002 18.3801 8.40002C18.2401 8.58002 18.0301 8.67999 17.8001 8.67999ZM7.12005 7.17999H16.87L16.2401 4.16998C16.0401 3.20998 15.81 2.76001 14.54 2.76001H9.44005C8.18005 2.76001 7.94006 3.20998 7.74006 4.16998L7.12005 7.17999Z" />
<path d="M17.7698 16.6497H16.4098C15.0898 16.6497 14.8198 15.8297 14.6698 15.3897L14.5198 14.9497C14.3598 14.4697 14.3599 14.4697 13.8499 14.4697H10.1398C9.62984 14.4697 9.62985 14.4797 9.46985 14.9497L9.31985 15.3897C9.16985 15.8297 8.89985 16.6497 7.57985 16.6497H6.21985C5.58985 16.6497 4.97984 16.3797 4.55984 15.9197C4.14984 15.4697 3.93984 14.8597 3.99984 14.2497L4.40985 9.83972C4.53985 8.45972 4.98984 7.17969 7.36984 7.17969H16.6198C18.9998 7.17969 19.4498 8.45972 19.5798 9.83972L19.9898 14.2597C20.0498 14.8697 19.8398 15.4797 19.4298 15.9297C19.0098 16.3897 18.3998 16.6497 17.7698 16.6497ZM16.1798 15.1397C16.1998 15.1397 16.2798 15.1497 16.4098 15.1497H17.7698C17.9798 15.1497 18.1799 15.0697 18.3199 14.9097C18.4499 14.7697 18.5098 14.5797 18.4998 14.3897L18.0898 9.96967C18.0098 9.07967 17.9698 8.66968 16.6298 8.66968H7.37985C6.03985 8.66968 5.99984 9.07967 5.91984 9.96967L5.50984 14.3897C5.48984 14.5797 5.54985 14.7697 5.68985 14.9097C5.82985 15.0597 6.02985 15.1497 6.23985 15.1497H7.59985C7.79985 15.1497 7.85984 15.1197 7.86984 15.1197C7.85984 15.1197 7.88984 14.9997 7.91984 14.9197L8.06985 14.4797C8.25985 13.9197 8.56985 12.9697 10.1598 12.9697H13.8698C15.3198 12.9697 15.6898 13.6797 15.9498 14.4597L16.0999 14.9097C16.1199 14.9997 16.1498 15.0997 16.1798 15.1397C16.1798 15.1397 16.1698 15.1397 16.1798 15.1397Z" />
<path d="M6.20021 6.5H5.47021C5.06021 6.5 4.72021 6.16 4.72021 5.75C4.72021 5.34 5.06021 5 5.47021 5H6.20021C6.61021 5 6.95021 5.34 6.95021 5.75C6.95021 6.16 6.61021 6.5 6.20021 6.5Z" />
<path d="M18.5298 6.5H17.7998C17.3898 6.5 17.0498 6.16 17.0498 5.75C17.0498 5.34 17.3898 5 17.7998 5H18.5298C18.9398 5 19.2798 5.34 19.2798 5.75C19.2798 6.16 18.9398 6.5 18.5298 6.5Z" />
<path d="M9.82014 11.5801H7.64014C7.23014 11.5801 6.89014 11.2401 6.89014 10.8301C6.89014 10.4201 7.23014 10.0801 7.64014 10.0801H9.82014C10.2301 10.0801 10.5701 10.4201 10.5701 10.8301C10.5701 11.2401 10.2401 11.5801 9.82014 11.5801Z" />
<path d="M16.3499 11.5801H14.1699C13.7599 11.5801 13.4199 11.2401 13.4199 10.8301C13.4199 10.4201 13.7599 10.0801 14.1699 10.0801H16.3499C16.7599 10.0801 17.0999 10.4201 17.0999 10.8301C17.0999 11.2401 16.7599 11.5801 16.3499 11.5801Z" />
<path d="M12 18.75C11.59 18.75 11.25 18.41 11.25 18V17C11.25 16.59 11.59 16.25 12 16.25C12.41 16.25 12.75 16.59 12.75 17V18C12.75 18.41 12.41 18.75 12 18.75Z" />
<path d="M12 22.75C11.59 22.75 11.25 22.41 11.25 22V21C11.25 20.59 11.59 20.25 12 20.25C12.41 20.25 12.75 20.59 12.75 21V22C12.75 22.41 12.41 22.75 12 22.75Z" />
<path d="M2.00009 22.7501C1.94009 22.7501 1.8801 22.7401 1.8201 22.7301C1.4201 22.6301 1.1701 22.2201 1.2701 21.8201L2.2701 17.8201C2.3701 17.4201 2.77009 17.1701 3.18009 17.2701C3.58009 17.3701 3.83009 17.7801 3.73009 18.1801L2.73009 22.1801C2.64009 22.5201 2.34009 22.7501 2.00009 22.7501Z" />
<path d="M22.0002 22.7497C21.6602 22.7497 21.3602 22.5197 21.2702 22.1797L20.2702 18.1797C20.1702 17.7797 20.4102 17.3697 20.8202 17.2697C21.2202 17.1697 21.6302 17.4097 21.7302 17.8197L22.7302 21.8197C22.8302 22.2197 22.5902 22.6297 22.1802 22.7297C22.1202 22.7397 22.0602 22.7497 22.0002 22.7497Z" />
</svg>

<?xml version="1.0" encoding="UTF-8"?>
<svg width="24" height="24" viewBox="0 0 24 24" xmlns="http://www.w3.org/2000/svg">
 <path d="m17.8 8.68h-11.6c-0.23 0-0.44-0.09997-0.58-0.27997s-0.2-0.41-0.15-0.63l0.81999-3.92c0.27-1.29 0.86001-2.6 3.16-2.6h5.1c2.31 0 2.9 1.32 3.16 2.6l0.82 3.92c0.05 0.22-0.01 0.45-0.15 0.63s-0.35 0.27997-0.58 0.27997zm-10.68-1.5h9.75l-0.6299-3.01c-0.2-0.96-0.4301-1.41-1.7001-1.41h-5.1c-1.26 0-1.5 0.44997-1.7 1.41l-0.62001 3.01z"/>
 <path d="m17.77 16.65h-1.36c-1.32 0-1.59-0.82-1.74-1.26l-0.15-0.44c-0.16-0.48-0.1599-0.48-0.6699-0.48h-3.7101c-0.50996 0-0.50995 0.01-0.66995 0.48l-0.15 0.44c-0.15 0.44-0.42 1.26-1.74 1.26h-1.36c-0.63 0-1.24-0.27-1.66-0.73-0.41-0.45-0.62-1.06-0.56-1.67l0.41001-4.41c0.13-1.38 0.57999-2.66 2.96-2.66h9.25c2.38 0 2.83 1.28 2.96 2.66l0.41 4.42c0.06 0.61-0.15 1.22-0.56 1.67-0.42 0.46-1.03 0.72-1.66 0.72zm-1.59-1.51c0.02 0 0.1 0.01 0.23 0.01h1.36c0.21 0 0.4101-0.08 0.5501-0.24 0.13-0.14 0.1899-0.33 0.1799-0.52l-0.41-4.42c-0.08-0.89-0.12-1.3-1.46-1.3h-9.25c-1.34 0-1.38 0.40999-1.46 1.3l-0.41 4.42c-0.02 0.19 0.04001 0.38 0.18001 0.52 0.14 0.15 0.34 0.24 0.55 0.24h1.36c0.2 0 0.25999-0.03 0.26999-0.03-0.01 0 0.02-0.12 0.05-0.2l0.15001-0.44c0.19-0.56 0.5-1.51 2.09-1.51h3.71c1.45 0 1.82 0.71 2.08 1.49l0.1501 0.45c0.02 0.09 0.0499 0.19 0.0799 0.23 0 0-0.01 0 0 0z"/>
 <path d="m6.2002 6.5h-0.73c-0.41 0-0.75-0.34-0.75-0.75s0.34-0.75 0.75-0.75h0.73c0.41 0 0.75 0.34 0.75 0.75s-0.34 0.75-0.75 0.75z"/>
 <path d="m18.53 6.5h-0.73c-0.41 0-0.75-0.34-0.75-0.75s0.34-0.75 0.75-0.75h0.73c0.41 0 0.75 0.34 0.75 0.75s-0.34 0.75-0.75 0.75z"/>
 <path d="m9.8201 11.58h-2.18c-0.41 0-0.75-0.34-0.75-0.75s0.34-0.75 0.75-0.75h2.18c0.40996 0 0.74996 0.34 0.74996 0.75s-0.33 0.75-0.74996 0.75z"/>
 <path d="m16.35 11.58h-2.18c-0.41 0-0.75-0.34-0.75-0.75s0.34-0.75 0.75-0.75h2.18c0.41 0 0.75 0.34 0.75 0.75s-0.34 0.75-0.75 0.75z"/>
 <path d="m12 18.75c-0.41 0-0.75-0.34-0.75-0.75v-1c0-0.41 0.34-0.75 0.75-0.75s0.75 0.34 0.75 0.75v1c0 0.41-0.34 0.75-0.75 0.75z"/>
 <path d="m12 22.75c-0.41 0-0.75-0.34-0.75-0.75v-1c0-0.41 0.34-0.75 0.75-0.75s0.75 0.34 0.75 0.75v1c0 0.41-0.34 0.75-0.75 0.75z"/>
 <path d="m2.0001 22.75c-0.06 0-0.11999-0.01-0.17999-0.02-0.4-0.1-0.65-0.51-0.55-0.91l1-4c0.1-0.4 0.49999-0.65 0.90999-0.55 0.4 0.1 0.65 0.51 0.55 0.91l-1 4c-0.09 0.34-0.39 0.57-0.73 0.57z"/>
 <path d="m22 22.75c-0.34 0-0.64-0.23-0.73-0.57l-1-4c-0.1-0.4 0.14-0.81 0.55-0.91 0.4-0.1 0.81 0.14 0.91 0.55l1 4c0.1 0.4-0.14 0.81-0.55 0.91-0.06 0.01-0.12 0.02-0.18 0.02z"/>
</svg>
